assets/icons/bowtie/uE6B3-copy-to-clipboard.svg

<svg xmlns="http://www.w3.org/2000/svg" viewBox="0 0 448 448"><path d="M320 416h-256v-320h32v64h192v-64h32v128h32v-160h-96c0-35.29-28.71-64-64-64s-64 28.71-64 64h-96v384h320v-128h-32v96zm-176-320h16v-32c0-17.645 14.355-32 32-32s32 14.355 32 32v32h32v32h-128v-32h16zm272 160v32h-165.373l60.687 60.687-22.627 22.627-99.314-99.314 99.314-99.313 22.627 22.627-60.687 60.686h165.373zm-224-32h-96v-32h96v32zm-96 32h64v32h-64v-32zm0 64h96v32h-96v-32z"/></svg>

<svg xmlns="http://www.w3.org/2000/svg" viewBox="0 0 448 448"><path d="M320 416H64V96h32v64h192V96h32v128h32V64h-96c0-35.29-28.71-64-64-64s-64 28.71-64 64H32v384h320V320h-32v96zM144 96h16V64c0-17.645 14.355-32 32-32s32 14.355 32 32v32h32v32H128V96h16zm272 160v32H250.627l60.687 60.687-22.627 22.627L189.373 272l99.314-99.313 22.627 22.627L250.627 256H416zm-224-32H96v-32h96v32zm-96 32h64v32H96v-32zm0 64h96v32H96v-32z"/></svg>
